findly-builder/apps/searchassist/src/assets/icons/search_gray_dark.svg

<svg width="14" height="14" viewBox="0 0 14 14" fill="none" xmlns="http://www.w3.org/2000/svg">
<path fill-rule="evenodd" clip-rule="evenodd" d="M6.2976 0.800049C3.26136 0.800049 0.800003 3.26798 0.800003 6.31233C0.800003 9.35668 3.26136 11.8246 6.2976 11.8246C7.62538 11.8246 8.84321 11.3526 9.79334 10.5669L12.3422 13.0912L12.3802 13.1254C12.5894 13.2964 12.898 13.283 13.0916 13.0865C13.2972 12.8778 13.2951 12.5414 13.0869 12.3352L10.5425 9.81534C11.3252 8.86297 11.7952 7.64269 11.7952 6.31233C11.7952 3.26798 9.33384 0.800049 6.2976 0.800049ZM6.2976 1.86266C8.74854 1.86266 10.7354 3.85484 10.7354 6.31233C10.7354 8.76982 8.74854 10.762 6.2976 10.762C3.84666 10.762 1.85978 8.76982 1.85978 6.31233C1.85978 3.85484 3.84666 1.86266 6.2976 1.86266Z" fill="#5F6368"/>
</svg>

<svg width="14" height="14" fill="none" xmlns="http://www.w3.org/2000/svg"><path fill-rule="evenodd" clip-rule="evenodd" d="M6.298.8C3.26.8.8 3.268.8 6.312c0 3.045 2.461 5.513 5.498 5.513a5.466 5.466 0 0 0 3.495-1.258l2.55 2.524.037.034a.53.53 0 0 0 .712-.039.532.532 0 0 0-.005-.75l-2.544-2.52a5.498 5.498 0 0 0 1.252-3.504C11.795 3.268 9.334.8 6.298.8Zm0 1.063a4.444 4.444 0 0 1 4.437 4.45 4.444 4.444 0 0 1-4.437 4.449 4.444 4.444 0 0 1-4.438-4.45 4.444 4.444 0 0 1 4.438-4.45Z" fill="#5F6368"/></svg>
